src/assets/svg/pay-crypto.svg

<svg width="44" height="39" viewBox="0 0 44 39" fill="none" xmlns="http://www.w3.org/2000/svg">
<path fill-rule="evenodd" clip-rule="evenodd" d="M33.0873 1.83742e-08C33.7516 -6.2925e-05 34.4058 0.161591 34.9936 0.470998C35.5815 0.780405 36.0851 1.22826 36.4611 1.77588L36.6391 2.06232L43.4603 13.9943C43.8767 14.7226 44.0592 15.5613 43.9831 16.3968C43.907 17.2323 43.5759 18.0242 43.0347 18.6652L42.8015 18.9168L23.8089 37.9094C23.3634 38.3548 22.7692 38.6201 22.1402 38.6544C21.5113 38.6888 20.8917 38.4898 20.4004 38.0956L20.1917 37.9114L1.19913 18.9168C0.605859 18.3238 0.209171 17.5628 0.0627895 16.7369C-0.083592 15.9109 0.0274064 15.0599 0.380752 14.2991L0.540336 13.9922L7.35948 2.06027C7.68906 1.48347 8.15412 0.995582 8.71448 0.638763C9.27484 0.281943 9.91365 0.0669223 10.5757 0.0122758L10.9092 1.83742e-08H33.0873ZM33.0873 4.0919H10.9092L4.09006 16.0259L21.9983 33.9341L39.9064 16.0259L33.0873 4.0919ZM28.1361 6.13785C28.6787 6.13785 29.1991 6.3534 29.5828 6.73709C29.9665 7.12078 30.182 7.64118 30.182 8.1838C30.182 8.72642 29.9665 9.24681 29.5828 9.6305C29.1991 10.0142 28.6787 10.2297 28.1361 10.2297H24.0442V13.3907C25.595 13.534 27.0047 13.8347 28.1443 14.2623C28.9524 14.5651 29.6767 14.9498 30.2168 15.4305C30.757 15.9113 31.205 16.5701 31.205 17.3906C31.205 18.211 30.757 18.8718 30.2168 19.3506C29.6767 19.8314 28.9524 20.216 28.1443 20.5168C26.929 20.973 25.4068 21.2881 23.7312 21.417C23.9359 21.7431 24.0444 22.1204 24.0442 22.5054V26.5973C24.0442 27.14 23.8286 27.6604 23.445 28.044C23.0613 28.4277 22.5409 28.6433 21.9983 28.6433C21.4556 28.6433 20.9352 28.4277 20.5515 28.044C20.1679 27.6604 19.9523 27.14 19.9523 26.5973V22.5054C19.9523 22.1044 20.0669 21.7321 20.2653 21.417C18.5897 21.2881 17.0675 20.9751 15.8522 20.5168C15.0441 20.216 14.3198 19.8314 13.7797 19.3506C13.2395 18.8698 12.7915 18.211 12.7915 17.3906C12.7915 16.5701 13.2395 15.9093 13.7797 15.4305C14.3198 14.9498 15.0441 14.5651 15.8522 14.2644C16.9898 13.8347 18.3994 13.534 19.9523 13.3907V10.2297H15.8604C15.3178 10.2297 14.7974 10.0142 14.4137 9.6305C14.03 9.24681 13.8145 8.72642 13.8145 8.1838C13.8145 7.64118 14.03 7.12078 14.4137 6.73709C14.7974 6.3534 15.3178 6.13785 15.8604 6.13785H28.1361ZM24.0422 15.4469C24.0186 15.9732 23.793 16.4701 23.4122 16.8341C23.0315 17.1982 22.525 17.4014 21.9983 17.4014C21.4715 17.4014 20.965 17.1982 20.5843 16.8341C20.2035 16.4701 19.9779 15.9732 19.9543 15.4469C18.8003 15.5485 17.6635 15.7939 16.5703 16.1773C15.8952 16.431 15.4246 16.7072 15.1361 16.9609C14.8968 17.1737 14.8497 17.3128 14.8395 17.3681L14.8374 17.3906C14.8374 17.4172 14.8477 17.5645 15.1361 17.8202C15.4246 18.076 15.8972 18.3522 16.5703 18.6018C17.9104 19.1051 19.8275 19.4365 21.9983 19.4365C24.169 19.4365 26.0861 19.1051 27.4262 18.6018C28.0993 18.3501 28.5719 18.0739 28.8583 17.8202C28.9827 17.7246 29.0811 17.5994 29.1448 17.456L29.1591 17.3906L29.1448 17.3251C29.0811 17.1817 28.9827 17.0565 28.8583 16.9609C28.5719 16.7072 28.0993 16.429 27.4262 16.1794C26.5259 15.8418 25.3638 15.5799 24.0422 15.4469Z" fill="#00C700"/>
</svg>

<svg xmlns="http://www.w3.org/2000/svg" width="44" height="39" fill="none"><path fill="#00C700" fill-rule="evenodd" d="M33.087 0a4.09 4.09 0 0 1 3.374 1.776l.178.286 6.821 11.932a4.09 4.09 0 0 1-.425 4.671l-.233.252-18.993 18.992a2.557 2.557 0 0 1-3.409.187l-.208-.185L1.199 18.917a4.09 4.09 0 0 1-.818-4.618l.16-.307L7.358 2.06A4.09 4.09 0 0 1 10.576.012L10.909 0zm0 4.092H10.91L4.09 16.026l17.908 17.908 17.908-17.908zm-4.95 2.046a2.046 2.046 0 0 1 0 4.092h-4.093v3.16c1.551.144 2.96.445 4.1.872.808.303 1.533.688 2.073 1.168.54.481.988 1.14.988 1.96s-.448 1.482-.988 1.96c-.54.481-1.265.866-2.073 1.167-1.215.456-2.737.771-4.413.9.205.326.313.703.313 1.088v4.092a2.046 2.046 0 1 1-4.092 0v-4.092c0-.4.115-.773.313-1.088-1.675-.129-3.198-.442-4.413-.9-.808-.301-1.532-.686-2.072-1.166-.54-.481-.989-1.14-.989-1.96s.448-1.482.989-1.96c.54-.481 1.264-.866 2.072-1.167 1.138-.43 2.547-.73 4.1-.873V10.23H15.86a2.046 2.046 0 1 1 0-4.092zm-4.095 9.309a2.046 2.046 0 0 1-4.088 0c-1.154.102-2.29.347-3.384.73-.675.254-1.145.53-1.434.784-.24.213-.286.352-.296.407l-.003.023c0 .026.01.174.3.43.288.255.76.531 1.433.78 1.34.504 3.258.835 5.428.835s4.088-.33 5.428-.834c.673-.252 1.146-.528 1.432-.782a.94.94 0 0 0 .287-.364l.014-.065-.014-.066a.94.94 0 0 0-.287-.364c-.286-.254-.759-.532-1.432-.782-.9-.337-2.062-.6-3.384-.732" clip-rule="evenodd"/></svg>
